X:1
T:03 - Veggo dolce mio bene
T:Luca Marenzio (1556 - 1599) 1º Libro di Madrigali a quattro voci (Venetia, 1592)
T:03 - Veggo dolce mio bene
T:© 2018 Ed. Marcos Mato
T:© 2018 Ed. Marcos Mato
T:© 2018 Ed. Marcos Mato
T:© 2018 Ed. Marcos Mato
C:Luca Marenzio (1556 - 1599)
C:1º Libro di Madrigali a quattro voci (Venetia, 1592)
Z:© 2018 Ed. Marcos Mato
%%score [ 1 2 3 4 ]
L:1/8
M:4/4
K:F
V:1 alto1 nm="Soprano" snm="Sop."
V:2 alto nm="Alto" snm="A."
V:3 tenor transpose=-12 nm="Tenor" snm="T."
V:4 bass nm="Basso" snm="Bajo"
V:1
 A4 | [Dd]2 |[M:4/2] z8 A8 | E2 A3 A A2 G8 | ^F4 z4 z2 A2 B2 AG | A2 =F2 z4 z8 | z4 B4 B3 G A3 B | %7
w: ||Veg-|go, dol- ce mio be-|ne, nel vol- * *|* ger|un vi- vo lu- *|
 G4 F2 A2 A3 F G3 A | F4 E4 z4 G4 | G12 F4 | G4 A8 D4- | D4 D4 E4 E4 | E12 F4- | F4 E4 G8 | %14
w: * me, un vi- vo lu- *|* me che|per che|mi con- su-|* me di so-|ver- chia|_ dol- cez-|
 G8 z2 G2 A2 A2 | B4 A2 A2 B2 c2 d4- | d4 ^c4 z8 | A12 B4 | c8 c4 A4 | G4 F6 ED E4 | %20
w: za; e chieg- gio\_a-|i- ta, e chieg- gio\_a- i-|* ta|qua- si\_al|fin de mia|vi- * * * *|
 F4 z4 z2 A2 B2 G2 | A2 c2 B4 A2 A2 F2 G2 | A4 z4 z4 F4 | F8 G8 | F4 B8 A4- | A4 G2 F2 E8 | %26
w: ta che non mi|sia'l mo- ri- re si tos- to|fin del|mio dol-|ce lan- gui-||
 F2 D2 E2 F2 G4 F2 A2 | B2 c2 d8 ^c4 | z8 A8- | A4 B4 c8 | c4 A4 G4 F4- | F2 ED E4 F4 z4 | %32
w: re, e chieg- gio\_a- i- ta, e|chieg- gio\_a- i- ta|qua-|* si\_al fin|de mia vi- *|* * * * ta|
 z2 A2 B2 G2 A2 c2 B4 | A2 A2 F2 G2 A4 z4 | z4 F4 F8 | G8 F4 B4- | B4 A8 G2 F2 | E8 ^F8 |] %38
w: che non mi sia'l mo- ri-|re si tos- to fin|del mio|dol- ce lan-|* gui- * *|* re.|
V:2
 F4 | [G,G]2 |[M:4/2] F8 E8 | z2 E3 E A,2 D8 | D4 z4 z2 D2 G2 FE | F2 D2 z4 z8 | %6
w: ||Veg- go,|dol- ce mio be-|ne, nel vol- * *|* ger|
 z2 F4 F3 D G3 F F2- | F2 E2 F4 z8 | z8 z4 D4 | D8 B,4 D4- | D4 C8 B,4- | B,4 A,4 z4 C4- | %12
w: un vi- vo lu- * *|* * me|che|per che mi|_ con- su-|* me di|
 C2 C2 C8 D4- | D4 ^C4 D8 | D8 z2 E2 F2 ^F2 | G4 C2 D4 A4 G2 | A4 A,8 F4- | F4 E2 D2 C8 | F8 E8 | %19
w: _ so- ver- chia|_ dol- cez-|za e chieg- gio\_a-|i- ta, e chieg- gio\_a-|i- ta qua-||si\_al fin|
 E4 C4 C8 | C4 z4 z2 F2 D2 E2 | F2 C2 D4 C2 C2 D2 E2 | F4 z4 z4 D4 | D8 _E8 | D8 F8 | %25
w: de mia vi-|ta che non mi|sia'l mo- ri- re si tos- to|fin del|mio dol-|ce lan-|
 E4 D6"^#" ^C=B, C4 | D2 =B,2 =C2 D2 G,4 A,2 F2 | D2 A4 G2 A4 A,4- | A,4 F8 E2 D2 | C8 F8 | %30
w: gui- * * * *|re, e chieg- gio\_a- i- ta, e|chieg- gio\_a- i- ta qua-|* si\al _ _|_ fin|
 E12 C4 | C8 C4 z4 | z2 F2 D2 E2 F2 C2 D4 | C2 C2 D2 E2 F4 z4 | z4 D4 D8 | _E8 D8 | F8 =E4 D4- | %37
w: de mia|vi- ta|che non mi sia'l mo- ri-|re si tos- to fin|del mio|dol- ce|lan- gui- *|
 D2 ^C=B, C4 D8 |] %38
w: * * * * re.|
V:3
 D4 | [F,F]2 |[M:4/2] z4 D8 ^C4 | z2 ^C3 C D2 B,8 | A,2 A,2 B,2 A,G, A,2 F,2 z4 | %5
w: ||Veg- go,|dol- ce mio be-|ne, nel vol- * * * ger,|
 z2 A,2 B,2 A,G, A,2 F,2 B,2 C2 | D8 D8 | z2 C4 C3 A, D3 C C2- | C2 =B,2 C4 z4"^b" _B,4 | %9
w: nel vol- * * * ger de vostr'|oc- chi|un vi- vo lu- * *|* * me che|
 B,8 G,4 B,4- | B,4 A,8 G,4- | G,4 ^F,4 G,4 G,4 | G,8 A,8 | A,8 =B,8 |"^§" =B,8 z2 C2 C2 D2 | %15
w: per che mi|_ con- su-|* me di so-|ver- chia|dol- cez-|za; e chieg- gio|
 D3 E F4 _B,2 F2 D3 E | F4 E4 z8 | z8 A,8- | A,4 B,4 C8 | C4 A,4 G,8 | F,2 A,2 B,2 G,2 A,2 C2 B,4 | %21
w: a- * i- ta, e chieg- gio\_a-|i- ta|qua-|* si\_al fin|de mia vi-|ta che non mi sia'l mo- ri-|
 A,2 A,2 F,2 G,2 A,4 z4 | z2 A,2 F,2 G,2 A,4 B,4 | B,8 B,8 | B,8 F,8 | A,16 | %26
w: re si tos- to fin,|si tos- to fin del|mio dol-|ce lan-|gui-|
 A,2 G,2 G,2 B,4 C2 D4 | z2 F2 D3 E F4 E4 | z16 | A,12 B,4 | C8 C4 A,4 | G,8 F,2 A,2 B,2 G,2 | %32
w: re, e chieg- gio\_a- i- ta,|e chieg- gio\_a- i- ta||qua- si\_al|fin de mia|vi- ta che non mi|
 A,2 C2 B,4 A,2 A,2 F,2 G,2 | A,4 z4 z2 A,2 F,2 G,2 | A,4 B,4 B,8 | B,8 B,8 | F,8 A,8- | A,8 A,8 |] %38
w: sia'l mo- ri- re si tos- to|fin, si tos- to|fin del mio|dol- ce|lan- gui-|* re.|
V:4
 D,4 | [F,,B,]2 |[M:4/2] D,8 A,,8 | z2 A,3 A, ^F,2 G,8 | D,2 D,2 G,2 =F,E, F,2 D,2 z4 | %5
w: ||Veg- go,|dol- ce mio be-|ne, nel vol- * * * ger|
 z2 D,2 G,2 F,E, F,2 D,2 G,2 A,2 | B,8 B,4 z4 | z4 F,4 F,3 D, E,3 F, | D,4 C,4 G,8 | G,12 D,4 | %10
w: nel vol- * * * ger de vostr'|oc- chi|un vi- vo lu- *|* me che|par che|
 E,4 F,4 D,8 | D,8 C,4 C,4 | C,8 A,,8 | A,,8 G,,8 | G,,8 z2 C,2 F,2 D,2 | G,4 F,2 D,2 G,2 F,2 B,4 | %16
w: mi con- su-|me di so-|ver- chia|dol- cez-|za e chieg- gio\_a-|i- ta, e chieg- gio\_a- i-|
 A,8 D,8- | D,4 E,4 F,8 | F,,4 G,,4 A,,6 B,,2 | C,16 | F,,2 F,2 D,2 E,2 F,2 F,2 G,4 | %21
w: ta qua-|* si\_al fin|de mia vi- *||ta che non mi sia'l mo- ri-|
 F,2 F,2 D,2 E,2 F,4 z4 | z2 F,2 D,2 E,2 F,4 B,,4 | B,,8 _E,8 | B,,8 D,8 | A,,16 | %26
w: re si tos- to fin,|si tos- to fin del|mio dol-|ce lan-|gui-|
 D,2 G,,2 C,2 B,,2 _E,4 D,2 D,2 | G,2 F,2 B,4 A,8 | D,12 E,4 | F,8 F,,4 G,,4 | A,,6 B,,2 C,8- | %31
w: re, e chieg- gio\_a- i- ta, e|chieg- gio\_a- i- ta|quas- si\_al|fin de mia|vi- * *|
 C,8 F,,2 F,2 D,2 E,2 | F,2 F,2 G,4 F,2 F,2 D,2 E,2 | F,4 z4 z2 F,2 D,2 E,2 | F,4 B,,4 B,,8 | %35
w: * ta che non mi|sia'l mo- ri- re si tos- to|fin, si tos- to|fin del mio|
 _E,8 B,,8 | D,8 A,,8- | A,,8 D,8 |] %38
w: dol- ce|lan- gui-|* re.|

